X:1
T:Non fia piu ver II
T:Benedetto Ferrari
T:Source : Musiche Varie a voce sola---Libro primo---Venetia---B.Magni---1633. Editor : André Vierendeels (30/12/16).
T:Notes : Original clefs : C4, F4 Editorial accidentals above the staff m14 in T : "A" notated as "G" in original print Figures in BC are notated in original print See also "E se mai l'empio"(B.Ferrari) with ca. same BC
T:Non fia piu ver II
T:©
T:©
T:©
C:Benedetto Ferrari
Z:©
%%score 1 2
L:1/8
Q:1/4=99
M:4/4
K:C
V:1 treble-8 nm="Tenor" snm="T"
V:2 bass nm="MusicXML Part"
V:1
 z4 z eBd | ^G4 z2 z B | B B2 B/B/ B4 | A4 z2 z e | e e2 e/e/ e4 | d4 z/ A/_B/c/ d/c/B/A/ | %6
w: Non fia piu|ver che|per vi- le te- so-|ro, che|per vi- le te- so-|ro, il _ _ _ _ _ _|
 _B/G/A/B/ c/B/A/G/ A/c/d/e/ f2- | f/e/d/c/ _BA G4 | F4 z2 cc | c3 c/B/ c4 | %10
w: mar _ _ _ d'a _ _ _ mor à va- li- car|_ _ _ _ _ io pren-|da o d'un|sen dis- le- al|
 z/ G/A/B/ c/d/e/^f/ g4 | g4 z/ B/c/d/ e/f/g/G/ | A4 G4 | z4 z e^cA | %14
w: la _ _ _ _ _ _ ru-|pe a- * * * * * *|scen- da|per tra- boc-|
 dc/B/ A/G/^F/E/ FG/A/ E/F/G/A/ | BdBd E4 | E4 E4 | _E4- EDDD | D4 C4 | z4 z cea | %20
w: car, _ _ _ _ _ _ _ _ _ _ _ _ _|_ per tra- boc- car|nel cen-|* * tro del mar-|to- ro,|per tra- bo-|
 B/c/d/G/ A/B/c/B/ A/B/c/d/ e/f/g/f/ | e/d/c/B/ AG F2 z _B | _B8- | BAAA A3 ^G | A8 |] %25
w: car _ _ _ _ _ _ _ _ _ _ _ _ _ _ _|_ _ _ _ _ _ _ nel|cen-|* tro del mar- to- ro.|_|
V:2
"^-natural""^BC" A,6 D,2 |"^-natural" E,6 ^C,2 |"^#" D,2 F,2 E,4 | A,,4 ^F,4 | G,2 _B,2 A,4 | %5
 D,3 E, F,2 ^F,2 | G,2 E,2 F,2 A,,2 | _B,,2 F,,2 C,4 | F,,2 F,4 E,2 | D,4 C,2 C,2- | %10
 C,2 D,2 E,2 ^F,2 | G,3 A,, B,,2 C,2 | D,,4 G,,2 G,2- | G,2 F,2 E,4 | D,2 D,4 C,2 | %15
 B,,4 A,,2 A,2- | A,2 G,4 F,2 | F,2 G,2 A,2 F,2 | G,4 C,2 C,2- | C,2 B,,2 A,,4 | G,,4 F,,4 | %21
 E,,4 D,,4 |"^#" C,,4 D,,3 E,, | F,,2 D,,2 E,,4 | A,,8 |] %25

